app/dist/common/images/mountview-estates-plc.svg

<svg height="18" viewBox="0 0 18 18" width="18" xmlns="http://www.w3.org/2000/svg"><path d="m0 0h18v18h-18z" fill="#f0f3fa"/><path d="m4.41 6h1.09l1.5 4.63 1.5-4.63h1.09l-2.09 6h-1zm-.41 0h1v6h-1zm5 0h1v6h-1zm5 5v1h-2.43v-1zm-2-5v6h-1v-6zm2 2.5-.02 1h-2.43l.02-1zm-.02-2.5v1h-2.41v-1z" fill="#575d60"/></svg>

<!-- by TradingView --><svg width="18" height="18" viewBox="0 0 18 18" xmlns="http://www.w3.org/2000/svg"><path fill="#F0F3FA" d="M0 0h18v18H0z"/><path d="M4.41 6H5.5L7 10.63 8.5 6H9.59L7.5 12h-1L4.41 6ZM4 6h1v6H4V6Zm5 0h1v6H9V6ZM14 11v1h-2.43v-1H14Zm-2-5v6h-1V6h1Zm2 2.5-.02 1h-2.43l.02-1H14ZM13.98 6v1h-2.41V6h2.41Z" fill="#575D60"/></svg>
